components/Company/logos/logo-ibm.svg

<svg height="140" viewBox="0 0 400 140" width="400" xmlns="http://www.w3.org/2000/svg"><path d="m187.043478 69.0674026v4.9322369h-24.60662v-4.9322369zm-59.05331 0v4.9322369h-24.603397v-4.9322369zm19.199741 0-1.97962 4.9322369-1.953828-4.9322369zm-55.1230859 0c-3.7144691 3.2086989-8.4706077 4.9614977-13.3833966 4.9322369h-39.2732241v-4.9322369zm-57.5766552 0v4.9322369h-34.44668964v-4.9322369zm93.5000001-9.867691v4.9322368h-24.603397v-4.9322368zm23.046138 0-1.915138 4.9322368h-7.795966l-1.928034-4.9322368h11.635914zm-54.0494484 0c-.4435903 1.735535-1.1387384 3.3971394-2.0634483 4.9322368h-55.5132069v-4.9322368zm-62.4966897 0v4.9322368h-34.44668964v-4.9322368zm152.5533101 0v4.9322368h-24.60662v-4.9322368zm-9.843293-9.8676911v4.9354542h-14.763327v-4.9354542h14.766551zm-49.210017 0v4.9354542h-14.763328v-4.9354542h14.766552zm26.905431 0-1.934483 4.9354542h-15.495207l-1.947379-4.9354542zm-58.5954828 0c.4417069 1.5765141.6867414 3.2270278.6867414 4.9354542h-18.2067069v-4.9354542zm-32.2832931 0v4.9354542h-14.7633276v-4.9354542h14.7665517zm-39.3667241 0v4.9354542h-14.76655177v-4.9354542zm152.550086-9.8644737v4.9322369h-14.763327v-4.9322369h14.766551zm-49.210017 0v4.9322369h-14.763328v-4.9322369h14.766552zm30.7615 0-1.92481 4.9322369h-23.278276l-1.905466-4.9322369zm-68.5064828 0c1.6991206 1.3899063 3.1596551 3.0597243 4.2816551 4.9322369h-45.2733448v-4.9322369zm-65.5950862 0v4.9322369h-14.76655177v-4.9322369zm119.186707-9.867691 1.376707 3.9895458 1.379931-3.9895458h30.606741v4.9322368h-14.763327v-4.5332822l-1.673328 4.5364996h-31.148397l-1.624965-4.5364996v4.5364996h-14.763328v-4.9354542h30.61319zm-119.186707 0v4.9322368h-14.76655177v-4.9322368zm69.8767413 0c-1.1338272 1.8764943-2.5820821 3.5448062-4.2816551 4.9322368h-40.9916897v-4.9322368zm82.6733447-9.8676911v4.9354543h-28.901172l1.741034-4.9354543zm-36.797086 0 1.741034 4.9354543h-28.917293v-4.9354543h27.179483zm-43.4162414 0c0 1.7084265-.2450345 3.3621576-.6867414 4.9354543h-17.5231897v-4.9354543zm-32.9700345 0v4.9354543h-14.7633276v-4.9354543h14.7665517zm-39.3667241 0v4.9354543h-14.76655177v-4.9354543zm112.345086-9.86447364 1.708793 4.93223684h-35.313982v-4.93223684h33.608413zm50.048293 0v4.93223684h-35.336551l1.773275-4.93223684zm-92.1232928 0c.9156551 1.52181864 1.6249655 3.17876714 2.0666724 4.93223684h-57.5734311v-4.93223684zm-60.4300173 0v4.93223684h-34.44668964v-4.93223684zm99.0519651-9.86769106 1.741035 4.93223684h-31.896397v-4.93223684zm53.501345 0v4.93223684h-31.857707l1.702345-4.93223684zm-108.3632756 0c5.1618448 0 9.8561897 1.86929524 13.3866207 4.93223684h-52.6533966v-4.93223684zm-44.1868103 0v4.93223684h-34.44991384v-4.93223684h34.44668964z" fill="#161616" fill-rule="evenodd" transform="translate(105.956522 26)"/></svg>

<?xml version="1.0" encoding="UTF-8"?>
<svg width="400px" height="140px" viewBox="0 0 400 140" version="1.1" xmlns="http://www.w3.org/2000/svg" xmlns:xlink="http://www.w3.org/1999/xlink">
    <title>Artboard</title>
    <g id="Artboard" stroke="none" stroke-width="1" fill="none" fill-rule="evenodd">
        <g id="Group" transform="translate(105.956522, 26.000000)" fill="#161616">
            <path d="M187.043478,69.0674026 L187.043478,73.9996395 L162.436858,73.9996395 L162.436858,69.0674026 L187.043478,69.0674026 Z M127.990168,69.0674026 L127.990168,73.9996395 L103.386771,73.9996395 L103.386771,69.0674026 L127.990168,69.0674026 Z M147.189909,69.0674026 L145.210289,73.9996395 L143.256461,69.0674026 L147.189909,69.0674026 Z M92.0668231,69.0674026 C88.352354,72.2761015 83.5962154,74.0289003 78.6834265,73.9996395 L39.4102024,73.9996395 L39.4102024,69.0674026 L92.0668231,69.0674026 Z M34.4901679,69.0674026 L34.4901679,73.9996395 L0.0434782609,73.9996395 L0.0434782609,69.0674026 L34.4901679,69.0674026 L34.4901679,69.0674026 Z M127.990168,59.1997116 L127.990168,64.1319484 L103.386771,64.1319484 L103.386771,59.1997116 L127.990168,59.1997116 Z M151.036306,59.1997116 L149.121168,64.1319484 L141.325202,64.1319484 L139.397168,59.1997116 L151.033082,59.1997116 L151.036306,59.1997116 Z M96.9868576,59.1997116 C96.5432673,60.9352466 95.8481192,62.596851 94.9234093,64.1319484 L39.4102024,64.1319484 L39.4102024,59.1997116 L96.9868576,59.1997116 Z M34.4901679,59.1997116 L34.4901679,64.1319484 L0.0434782609,64.1319484 L0.0434782609,59.1997116 L34.4901679,59.1997116 L34.4901679,59.1997116 Z M187.043478,59.1997116 L187.043478,64.1319484 L162.436858,64.1319484 L162.436858,59.1997116 L187.043478,59.1997116 Z M177.200185,49.3320205 L177.200185,54.2674747 L162.436858,54.2674747 L162.436858,49.3320205 L177.203409,49.3320205 L177.200185,49.3320205 Z M127.990168,49.3320205 L127.990168,54.2674747 L113.22684,54.2674747 L113.22684,49.3320205 L127.993392,49.3320205 L127.990168,49.3320205 Z M154.895599,49.3320205 L152.961116,54.2674747 L137.465909,54.2674747 L135.51853,49.3320205 L154.895599,49.3320205 L154.895599,49.3320205 Z M96.3001162,49.3320205 C96.7418231,50.9085346 96.9868576,52.5590483 96.9868576,54.2674747 L78.7801507,54.2674747 L78.7801507,49.3320205 L96.3001162,49.3320205 Z M64.0168231,49.3320205 L64.0168231,54.2674747 L49.2534955,54.2674747 L49.2534955,49.3320205 L64.0200472,49.3320205 L64.0168231,49.3320205 Z M24.650099,49.3320205 L24.650099,54.2674747 L9.88354723,54.2674747 L9.88354723,49.3320205 L24.650099,49.3320205 L24.650099,49.3320205 Z M177.200185,39.4675468 L177.200185,44.3997837 L162.436858,44.3997837 L162.436858,39.4675468 L177.203409,39.4675468 L177.200185,39.4675468 Z M127.990168,39.4675468 L127.990168,44.3997837 L113.22684,44.3997837 L113.22684,39.4675468 L127.993392,39.4675468 L127.990168,39.4675468 Z M158.751668,39.4675468 L156.826858,44.3997837 L133.548582,44.3997837 L131.643116,39.4675468 L158.751668,39.4675468 Z M90.2451852,39.4675468 C91.9443058,40.8574531 93.4048403,42.5272711 94.5268403,44.3997837 L49.2534955,44.3997837 L49.2534955,39.4675468 L90.2451852,39.4675468 Z M24.650099,39.4675468 L24.650099,44.3997837 L9.88354723,44.3997837 L9.88354723,39.4675468 L24.650099,39.4675468 L24.650099,39.4675468 Z M143.836806,29.5998558 L145.213513,33.5894016 L146.593444,29.5998558 L177.200185,29.5998558 L177.200185,34.5320926 L162.436858,34.5320926 L162.436858,29.9988104 L160.76353,34.53531 L129.615133,34.53531 L127.990168,29.9988104 L127.990168,34.53531 L113.22684,34.53531 L113.22684,29.5998558 L143.84003,29.5998558 L143.836806,29.5998558 Z M24.650099,29.5998558 L24.650099,34.5320926 L9.88354723,34.5320926 L9.88354723,29.5998558 L24.650099,29.5998558 Z M94.5268403,29.5998558 C93.3930131,31.4763501 91.9447582,33.144662 90.2451852,34.5320926 L49.2534955,34.5320926 L49.2534955,29.5998558 L94.5268403,29.5998558 Z M177.200185,19.7321647 L177.200185,24.667619 L148.299013,24.667619 L150.040047,19.7321647 L177.200185,19.7321647 Z M140.403099,19.7321647 L142.144133,24.667619 L113.22684,24.667619 L113.22684,19.7321647 L140.406323,19.7321647 L140.403099,19.7321647 Z M96.9868576,19.7321647 C96.9868576,21.4405912 96.7418231,23.0943223 96.3001162,24.667619 L78.7769265,24.667619 L78.7769265,19.7321647 L96.9868576,19.7321647 Z M64.0168231,19.7321647 L64.0168231,24.667619 L49.2534955,24.667619 L49.2534955,19.7321647 L64.0200472,19.7321647 L64.0168231,19.7321647 Z M24.650099,19.7321647 L24.650099,24.667619 L9.88354723,24.667619 L9.88354723,19.7321647 L24.650099,19.7321647 L24.650099,19.7321647 Z M136.995185,9.86769106 L138.703978,14.7999279 L103.389996,14.7999279 L103.389996,9.86769106 L136.998409,9.86769106 L136.995185,9.86769106 Z M187.043478,9.86769106 L187.043478,14.7999279 L151.706927,14.7999279 L153.480202,9.86769106 L187.043478,9.86769106 L187.043478,9.86769106 Z M94.9201852,9.86769106 C95.8358403,11.3895097 96.5451507,13.0464582 96.9868576,14.7999279 L39.4134265,14.7999279 L39.4134265,9.86769106 L94.9201852,9.86769106 Z M34.4901679,9.86769106 L34.4901679,14.7999279 L0.0434782609,14.7999279 L0.0434782609,9.86769106 L34.4901679,9.86769106 L34.4901679,9.86769106 Z M133.542133,1.42108547e-14 L135.283168,4.93223684 L103.386771,4.93223684 L103.386771,1.42108547e-14 L133.542133,1.42108547e-14 Z M187.043478,1.42108547e-14 L187.043478,4.93223684 L155.185771,4.93223684 L156.888116,1.42108547e-14 L187.043478,1.42108547e-14 Z M78.6802024,1.42108547e-14 C83.8420472,1.42108547e-14 88.5363921,1.86929524 92.0668231,4.93223684 L39.4134265,4.93223684 L39.4134265,1.42108547e-14 L78.6802024,1.42108547e-14 Z M34.4933921,1.42108547e-14 L34.4933921,4.93223684 L0.0434782609,4.93223684 L0.0434782609,1.42108547e-14 L34.4901679,1.42108547e-14 L34.4933921,1.42108547e-14 Z" id="Shape"></path>
        </g>
    </g>
</svg>
